src/assets/selectIcons/musica_7.svg

<?xml version="1.0" encoding="UTF-8" standalone="no"?>
<!DOCTYPE svg PUBLIC "-//W3C//DTD SVG 1.1//EN" "http://www.w3.org/Graphics/SVG/1.1/DTD/svg11.dtd">
<svg width="100%" height="100%" viewBox="0 0 512 512" version="1.1" xmlns="http://www.w3.org/2000/svg" xmlns:xlink="http://www.w3.org/1999/xlink" xml:space="preserve" xmlns:serif="http://www.serif.com/" style="fill-rule:evenodd;clip-rule:evenodd;stroke-linejoin:round;stroke-miterlimit:2;">
    <rect x="0" y="0" width="512" height="512" style="fill-rule:nonzero;"/>
    <g>
        <path d="M375.2,23.61L362.5,36.31L387,60.81C387.5,59.61 388,58.51 388.5,57.31C390.9,50.71 392.6,44.91 393.4,41.81L375.2,23.61ZM408.5,54.11C407.6,57.11 406.6,60.01 405.2,63.71C401.2,74.51 396.1,87.11 385,94.11C381,96.51 376.9,96.71 373.8,96.41C370.7,96.11 368.2,95.31 366.3,94.81C364.6,94.41 363.7,94.21 363.1,94.11C362.5,95.01 361.9,96.31 361.5,98.61C360.7,101.8 360.5,106.1 360.7,110.2C360.8,116.2 361.4,120.7 361.9,123.3L388.7,150.1C391.3,150.5 395.8,151.1 401.7,151.3C409.2,151.4 416,149.5 417.7,148.6C417.6,147.8 417.5,147.2 417.1,145.7C416.6,143.7 415.8,141.2 415.4,138.1C415.1,135 415.4,130.8 417.7,126.9C424.7,115.8 437.3,110.7 448.2,106.6C451.8,105.2 454.8,104.4 457.8,103.5L441.4,70.61L408.5,54.11ZM341.3,57.51L328.6,70.21L346,87.71C347.3,84.81 349,82.11 351.6,79.81C354.1,77.61 357.2,76.51 359.9,76.11L341.3,57.51ZM470.2,118.5C467,119.3 461.1,120.9 454.5,123.5C453.4,123.9 452.3,124.3 451.1,124.8L475.7,149.4L488.4,136.7L470.2,118.5ZM349.5,136.4L217.4,262.3L227.2,272.1L356.2,143.1L349.5,136.4ZM435.8,151.9C435.4,154.7 434.3,157.9 432,160.4C429.7,162.9 427.2,164.7 424.5,166L441.8,183.3L454.5,170.6L435.8,151.9ZM368.9,155.8L240,284.9L249.7,294.5L375.6,162.5L368.9,155.8ZM142.6,250.3C112.2,250.3 81.73,261.9 58.47,285.2C11.94,331.7 11.94,406.9 58.47,453.5C105,500 180.2,500 226.8,453.5C262.6,417.6 270.7,365 251.5,321.3L156.8,416L171.7,430.9L158.9,443.6L68.44,353.1L81.17,340.4L95.92,355.1L190.7,260.4C175.4,253.6 159,250.3 142.6,250.3ZM203.2,273.5L108.7,367.9L120,379.2L214.5,284.8L203.2,273.5ZM227.2,297.5L132.7,392L143.9,403.2L238.5,308.8L227.2,297.5Z" style="fill:rgb(191,167,131);fill-rule:nonzero;"/>
    </g>
</svg>

<svg xmlns="http://www.w3.org/2000/svg" viewBox="0 0 512 512" style="height: 512px; width: 512px;"><path d="M0 0h512v512H0z" fill="#000" fill-opacity="1"></path><g class="" transform="translate(0,0)" style=""><path d="M375.2 23.61l-12.7 12.7 24.5 24.5c.5-1.2 1-2.3 1.5-3.5 2.4-6.6 4.1-12.4 4.9-15.5zm33.3 30.5c-.9 3-1.9 5.9-3.3 9.6-4 10.8-9.1 23.4-20.2 30.4-4 2.4-8.1 2.6-11.2 2.3-3.1-.3-5.6-1.1-7.5-1.6-1.7-.4-2.6-.6-3.2-.7-.6.9-1.2 2.2-1.6 4.5-.8 3.19-1 7.49-.8 11.59.1 6 .7 10.5 1.2 13.1l26.8 26.8c2.6.4 7.1 1 13 1.2 7.5.1 14.3-1.8 16-2.7-.1-.8-.2-1.4-.6-2.9-.5-2-1.3-4.5-1.7-7.6-.3-3.1 0-7.3 2.3-11.2 7-11.1 19.6-16.2 30.5-20.3 3.6-1.4 6.6-2.2 9.6-3.1l-16.4-32.89zm-67.2 3.4l-12.7 12.7 17.4 17.5c1.3-2.9 3-5.6 5.6-7.9 2.5-2.2 5.6-3.3 8.3-3.7zm128.9 60.99c-3.2.8-9.1 2.4-15.7 5-1.1.4-2.2.8-3.4 1.3l24.6 24.6 12.7-12.7zm-120.7 17.9L217.4 262.3l9.8 9.8 129-129zm86.3 15.5c-.4 2.8-1.5 6-3.8 8.5s-4.8 4.3-7.5 5.6l17.3 17.3 12.7-12.7zm-66.9 3.9L240 284.9l9.7 9.6 125.9-132zm-226.3 94.5c-30.4 0-60.87 11.6-84.13 34.9-46.53 46.5-46.53 121.7 0 168.3C105 500 180.2 500 226.8 453.5c35.8-35.9 43.9-88.5 24.7-132.2L156.8 416l14.9 14.9-12.8 12.7-90.46-90.5 12.73-12.7 14.75 14.7 94.78-94.7c-15.3-6.8-31.7-10.1-48.1-10.1zm60.6 23.2l-94.5 94.4 11.3 11.3 94.5-94.4zm24 24L132.7 392l11.2 11.2 94.6-94.4z" fill="#fff" fill-opacity="1"></path></g></svg>
